X: 22004
T: Kitty's Rambles
R: jig
M: 6/8
K: Dmixolydian
FED ^cBA|d^cd efg|afd ^cBA|GFG AFD|
FED ^cBA|d^cd efg|afd ^cBG|1 Ad^c d3:|2 Ad^c d2A||
dfa dfa|dfa afd|cee cee|ceg gfe|
fdf gfg|aga bag|fed ^cBG|Ad^c d3:|

